X:148
T:Jig,A. (p)1657.PLFD.149
M:6/4
L:1/4
Q:3/4=120
S:Playford, Dancing Master,Supplement to 3rd Ed.,1657
O:England
N:Try on Hurdy Gurdy & Bagpipes.
N:Possibly half a bar missing at end.
N:Like 'Will The Barber'.
H:1657.
Z:Chris Partington.
K:Bb
dfdc>BA|B2FB2c|dfdc>BA|B3d3:|
|:dfdf2d|dfde2c|gabf>ed|c2B:|
